icon-svg/sonos-sub.svg

<?xml version="1.0" encoding="UTF-8"?>
<svg width="24px" fill="#44739e" height="24px" viewBox="0 0 24 24" version="1.1" xmlns="http://www.w3.org/2000/svg" xmlns:xlink="http://www.w3.org/1999/xlink">
            <path d="m 9.05,7.58 v 9 c 3.752e-4,0.615499 0.459171,1.134324 1.07,1.21 l 2.49,0.26 v 0 C 13.198824,18.0557 13.68367,17.588625 13.7,17 L 13.75,8 C 13.751845,7.3984216 13.289736,6.8970774 12.69,6.85 L 10,6.64 v 0 C 9.4897079,6.6646594 9.0800578,7.0699974 9.05,7.58 Z m 3.8,8.76 c -0.5,-0.06 -1.94,-0.21 -2,-0.23 -0.10856,-0.06009 -0.17424,-0.175992 -0.17,-0.3 l 0.09,-8.27 1.78,0.13 v 0 c 0.1602,0.06784 0.271152,0.2170519 0.29,0.39 z m 8.58,2.13 v -0.01 l 0.01,-0.1 z M 3.46,3.29 C 3.9958051,3.1036263 4.5685545,3.0487521 5.13,3.13 c 2.53,0.12 4.58,0.21 9.5,0.52 1.87,0.12 4.49,0.31 5.15,0.48 0.672258,0.2315897 1.171015,0.8026849 1.31,1.5 L 21,19.78 c 0,0.15 0.31,-0.19 0.38,-0.73 V 18.36 L 21.5,5 V 5 5 5 C 21.5,3.74 19.97,3.45 19.79,3.42 18.79,3.21 5.99,2.5 5.39,2.53 4.6850739,2.5843388 4.0127071,2.849105 3.46,3.29 Z M 2.5,17.28 c 0,1.26 0.35,2.35 2,2.62 l 4.05,0.52 6.07,0.61 v 0 l 4.28,0.46 c 0.901769,0.105903 1.70105,-0.582495 1.73,-1.49 L 20.75,5.9 C 20.711115,5.4014742 20.431073,4.9534081 20,4.7 19.7136,4.4750574 19.36384,4.3456461 19,4.33 18,4.11 4.3,3.3 3.71,3.4 c -1.11,0.19 -1,1 -1,1.23 z M 8.8421074,6.4868646 C 9.030118,6.3144612 9.1066055,6.2075535 9.7294743,6.1579132 L 13,6.35 v 0 c 0.318834,0.020558 0.621599,0.1472973 0.86,0.36 0.193336,0.1894983 0.301581,0.4492862 0.3,0.72 0.0058,0.069882 0.0058,0.1401182 0,0.21 v 0 10.13 c 0,0 -0.08,0.74 -0.67,0.71 v 0 L 9.0893471,18.006873 C 8.8494828,17.909732 8.577195,17.50751 8.5231271,17.254433 L 8.5417187,7.2923437 C 8.5877369,6.7601698 8.6844736,6.680903 8.8421074,6.4868646 Z"/>

</svg>

<svg xmlns="http://www.w3.org/2000/svg" fill="#44739e" viewBox="0 0 24 24"><path d="M9.05 7.58v9a1.22 1.22 0 0 0 1.07 1.21l2.49.26c.5888.0057 1.0737-.4614 1.09-1.05l.05-9a1.15 1.15 0 0 0-1.06-1.15L10 6.64a1 1 0 0 0-.95.94m3.8 8.76c-.5-.06-1.94-.21-2-.23a.33.33 0 0 1-.17-.3l.09-8.27 1.78.13a.48.48 0 0 1 .29.39zm8.58 2.13v-.01l.01-.1zM3.46 3.29a3.54 3.54 0 0 1 1.67-.16c2.53.12 4.58.21 9.5.52 1.87.12 4.49.31 5.15.48a2 2 0 0 1 1.31 1.5L21 19.78c0 .15.31-.19.38-.73v-.69L21.5 5c0-1.26-1.53-1.55-1.71-1.58-1-.21-13.8-.92-14.4-.89a3.53 3.53 0 0 0-1.93.76M2.5 17.28c0 1.26.35 2.35 2 2.62l4.05.52 6.07.61 4.28.46c.9018.1059 1.701-.5825 1.73-1.49l.12-14.1A1.53 1.53 0 0 0 20 4.7a1.74 1.74 0 0 0-1-.37C18 4.11 4.3 3.3 3.71 3.4c-1.11.19-1 1-1 1.23zM8.8421 6.4869c.188-.1724.2645-.2793.8874-.329L13 6.35a1.43 1.43 0 0 1 .86.36 1 1 0 0 1 .3.72 1.27 1.27 0 0 1 0 .21v10.13s-.08.74-.67.71l-4.4007-.4731c-.2398-.0972-.5121-.4994-.5662-.7525l.0186-9.962c.046-.5322.1428-.6115.3004-.8055"/></svg>
